X:3212
T:Vid Brinnasen
R:Gånglåt
C: Rune Moberg
O:Arbrå, Hälsingland
S: Efter [[Personer/Rune Moberg]]
Z: LP 2013-03-08
M:2/4
L:1/8
K:Dm
|:A2 d2|d2 A=B|c=B A^G|A2-AD/E/| F2-F>G| TF2 ED|F2 E2|E4|
| A2 d2|d2 A=B|c=B A^G|A2 DE|F2 ED|^CD EF|D4-|D4:|
EG FE|A,^C EG|FG PFE|D2 F2|GA GE|CE Gc|A4-|A4|
ef e^c|A^c ea|fe d^c|d2 de|f2 ed|A^c ea|1 d4-|d2 AF:|2 d4-|d4|
(:musicend:)
(:music:)
